src/assets/icons/burger.svg

<svg xmlns="http://www.w3.org/2000/svg" width="28" height="28" fill="none">
  <path fill="#fff" d="m5 4 2 2h3v3l1 1h10V4zM8 13l2 2h6l4 4h1v-6zM15 20l2 2H5l2 2h14v-2l-2-2z"/>
</svg>

<svg width="28" height="28" viewBox="0 0 28 28" fill="none" xmlns="http://www.w3.org/2000/svg">
<path d="M5 4L7 6H10V9L11 10H21V4H5Z" fill="white"/>
<path d="M8 13L10 15H16L20 19H21V13H8Z" fill="white"/>
<path d="M15 20L17 22H5L7 24H21V22L19 20H15Z" fill="white"/>
</svg>
